X:22
T:Manfrina. JBs.022
T:Montferina,aka. JBs.020
T:Italian Montferina,aka. JBs.020
S:Jas.Blackshaw MS, 1837, N.Shropshire
Z:T. Weatherall 2006
M:6/8
L:1/8
Q:3/8=120
A:North Shropshire
R:Jig
K:C
G|c>de e2d|dcc c2g|g2B Bcd|dcc c2:|!
|:g|câ€™bcâ€™ dâ€™bg|fef g2g|câ€™bcâ€™ dâ€™bg|fefg2g|!
câ€™bcâ€™ câ€™bcâ€™|aga abcâ€™|gag fed|dcc c2:|

